X: 105101
Q:"Strathspey."
M: C
L: 1/16
K: Em
ue2 |\
EE3 G3uA vB3vA(Bd3) | DD3 F3uE DEFG AF3 |\
EE3 G3A B3A (Be3) | d3Bd3F EE3 E2 ::\
ug2 |\
ve3vfug3ue b3eg3e | f3ed3f agfe d3uf |
e3fg3e b3eg3e | d3BA3F EE3 E2 :|\
uF2 |\
vG3vBuE3uB G3BE3B | F3AD3A F3AD3A |\
g3be3b g3be3b |
f3ad3a f3ad3a |\
g3be3b g3be3g | f3da3f ee3 e2f2 |\
gb3eb3 gb3eb3 | fa3da3 fa3da3 |\
gb3eb3 f3ae3f | d^cBA vd3uF EE3 E2 |]


